public/images/flags/AZ.svg

<svg width="21" height="15" viewBox="0 0 21 15" fill="none" xmlns="http://www.w3.org/2000/svg">
<path d="M1.99501 0C1.73225 0.000261042 1.47215 0.0523726 1.22957 0.153349C0.986988 0.254325 0.766706 0.402181 0.581375 0.588442C0.396044 0.774702 0.249283 0.995706 0.149521 1.23879C0.0497594 1.48187 -0.0010367 1.74225 1.60339e-05 2.005V5H21V2.005C20.9997 1.47505 20.7897 0.966732 20.416 0.591064C20.0422 0.215397 19.5349 0.00290595 19.005 0H1.99501Z" fill="#45B2E8"/>
<path d="M1.52588e-05 5H21V10H1.52588e-05V5Z" fill="#E25950"/>
<path d="M1.52588e-05 10V12.995C0.000271474 13.525 0.210236 14.0333 0.584029 14.4089C0.957822 14.7846 1.46506 14.9971 1.99501 15H19.005C19.2677 14.9997 19.5278 14.9476 19.7704 14.8467C20.013 14.7457 20.2333 14.5978 20.4186 14.4116C20.6039 14.2253 20.7507 14.0043 20.8505 13.7612C20.9502 13.5181 21.001 13.2578 21 12.995V10H1.52588e-05Z" fill="#24B47E"/>
<path d="M11.25 6.26713C10.8974 6.10719 11.1331 6.2153 10.8974 6.10719C10.6618 5.99908 10.4029 5.9434 10.1408 5.94445C9.69681 5.93863 9.26853 6.09923 8.95014 6.39094C8.63176 6.68264 8.44934 7.08157 8.44301 7.5C8.44934 7.91843 8.63176 8.31736 8.95014 8.60906C9.26853 8.90077 9.69681 9.06137 10.1408 9.05555C10.4029 9.0566 10.6618 9.00092 10.8974 8.89281C11.1331 8.7847 10.8974 8.89281 11.25 8.73287C11.1969 8.89281 10.9238 9.1417 10.4912 9.32469C10.0585 9.50767 9.57327 9.5488 9.11289 9.44154C8.65252 9.33427 8.24353 9.08478 7.95119 8.73287C7.65885 8.38096 7.5 7.94692 7.5 7.5C7.5 7.05308 7.65885 6.61904 7.95119 6.26713C8.24353 5.91522 8.65252 5.66573 9.11289 5.55846C9.57327 5.4512 10.0585 5.49233 10.4912 5.67531C10.9238 5.8583 11.1199 6.10719 11.25 6.26713Z" fill="white"/>
<path d="M11.5 8C11.7761 8 12 7.77614 12 7.5C12 7.22386 11.7761 7 11.5 7C11.2239 7 11 7.22386 11 7.5C11 7.77614 11.2239 8 11.5 8Z" fill="white"/>
</svg>

<svg width="21" height="15" fill="none" xmlns="http://www.w3.org/2000/svg"><path d="M1.995 0A1.997 1.997 0 0 0 0 2.005V5h21V2.005A2.007 2.007 0 0 0 19.005 0H1.995z" fill="#45B2E8"/><path d="M0 5h21v5H0V5z" fill="#E25950"/><path d="M0 10v2.995A2.006 2.006 0 0 0 1.995 15h17.01A2 2 0 0 0 21 12.995V10H0z" fill="#24B47E"/><path d="M11.25 6.267l-.353-.16a1.799 1.799 0 0 0-.756-.163 1.73 1.73 0 0 0-1.19.447c-.32.292-.502.69-.508 1.109.006.418.189.817.507 1.11a1.73 1.73 0 0 0 1.19.446c.263 0 .522-.055.757-.163l.353-.16c-.053.16-.326.409-.759.592a2.242 2.242 0 0 1-1.378.117 2.138 2.138 0 0 1-1.162-.71A1.928 1.928 0 0 1 7.5 7.5c0-.447.159-.881.451-1.233a2.138 2.138 0 0 1 1.162-.709c.46-.107.946-.066 1.378.117.433.183.629.432.759.592z" fill="#fff"/><path d="M11.5 8a.5.5 0 1 0 0-1 .5.5 0 0 0 0 1z" fill="#fff"/></svg>
